X:1
T:Confitemini Domino
T:Confitemini Domino
T:Jean Mouton (c.1459-1522)
T:© 2013 by Paul R Marchesano. May be freely copied for nonprofit use.
T:© 2013 by Paul R Marchesano. May be freely copied for nonprofit use.
T:© 2013 by Paul R Marchesano. May be freely copied for nonprofit use.
T:© 2013 by Paul R Marchesano. May be freely copied for nonprofit use.
T:© 2013 by Paul R Marchesano. May be freely copied for nonprofit use.
T:© 2013 by Paul R Marchesano. May be freely copied for nonprofit use.
T:© 2013 by Paul R Marchesano. May be freely copied for nonprofit use.
T:© 2013 by Paul R Marchesano. May be freely copied for nonprofit use.
T:© 2013 by Paul R Marchesano. May be freely copied for nonprofit use.
T:© 2013 by Paul R Marchesano. May be freely copied for nonprofit use.
T:© 2013 by Paul R Marchesano. May be freely copied for nonprofit use.
T:© 2013 by Paul R Marchesano. May be freely copied for nonprofit use.
T:© 2013 by Paul R Marchesano. May be freely copied for nonprofit use.
C:Jean Mouton
C:(c.1459-1522)
Z:© 2013 by Paul R Marchesano. May be freely copied for nonprofit use.
%%score [ 1 2 3 4 ]
L:1/8
Q:1/4=140
M:2/2
K:C
V:1 treble nm="Soprano" snm="S"
V:2 treble nm="Alto" snm="A"
V:3 treble-8 nm="Tenor" snm="T"
V:4 bass nm="Bass" snm="B"
V:1
"^Prima pars" z8 | z8 | z4 G4- | G4 G4 | c6 c2 | c4 c4- | c2 B2 A4 | z2 G2 A2 G2 | A4 G4 | %9
w: ||Con-|* fi-|te- mi-|ni Do-|* mi- no|quo- ni- am|bo- nus,|
 z2 G3 G G2 | A2 B3 c d2- | d2 B2 c2 d2 | B2 A2 c3 B | A2 G3 E F2 | G3 F/E/ D4 | z8 | z8 | z8 | %18
w: quo- ni- am|in sae- cu- lum|_ mi- se- ri-|cor- di- a _|_ e- * *|* * * jus,||||
 z2 E2 F2 G2 | E2 D2 G4 | z4 z2 A2 | B2 c2 A2 G2 | c4 B2 A2- | AG G4 ^F2 | G8 | z2 D2 G3 A | %26
w: mi- se- ri-|cor- di- a,|mi-|se- ri- cor- di-|a _ e-||jus.|De tri- bu-|
 B2 c2 A2 G2- | G2 A2 B2 c2 | A4 z2 DE | FG A3 GGF | A2 F2 E4 | D8 | z8 | z8 | z8 | z8 | z8 | %37
w: la- ti- o- ne|_ in- vo- ca-|vi Do- *||* * mi-|num,||||||
 z2 A2 B2 d2- | d2 c2 A2 B2- | BA G4 F2 | G6 F2- | FE C2 D4 | E8- | E4 z2 A2- | A2 G2 F2 A2- | %45
w: in- vo- ca-|* vi _ Do-|* * * mi-|num, Do-|* * * mi-|num,|_ et|_ ex- au- di-|
 AGFE D4 | A2 B2 c4 | B8 | z2 d3 c B2 | A2 G4 F2 | E4 D3 E | FE G3 FED | E4 z4 | z8 | z4 z2 G2 | %55
w: |* * vit|me.|Do- mi- nus|_ mi- hi|ad- ju- *||tor,||non|
 G2 G2 A4 | F2 A2 G2 E2- | E2 F2 G2 A2- | AGFE D4 | z2 G2 G2 G2 | A4 z2 F2 | G2 E2 D3 E | FEFG A4 | %63
w: ti- me- bo|quid fa- ci- at|_ mi- hi ho-|* * * * mo,|non ti- me-|bo quid|fa- ci- at _|_ _ _ _ _|
 z8 | z8 | z8 | z8 | z2 G2 G2 G2 | A4 F2 G2 | E2 D4 F2 | G2 A4 ^G2 | A4 z2 A2- | AB c2 B2 A2- | %73
w: ||||non ti- me-|bo quid fa-|ci- at mi-|hi ho- *|mo, mi-|* * * hi ho-|
 AG G3 ^FFE | G8 ||"^Secunda pars" z8 | F8 | _B4 A4- | A2 E2 G2 F2 | E4 D3 E | F2 G2 E2 D2 | %81
w: |mo.||Bo-|num est|_ con- fi- de-|re, bo- num|est con- fi- de-|
 A4 A2 G2- | G2 F2 E4 | z4 D2 E2 | F3 D E2 F2 | G2 A2 B3 c | d4 z2 A2 | B3 c d4 | z8 | z8 | z8 | %91
w: re in Do-|* mi- no,|bo- num|est con- fi- de-|re in Do- mi-|no, in|Do- mi- no,||||
 c4 c2 B2 | d4 A2 c2- | cBAG A2 G2- | GFDE FG A2- | A2 GA Bc d2- | dcBA G2 A2- | AG G4 ^F2 | G8 | %99
w: quam con- fi-|de- re in|_ _ _ _ _ _|||* * * * * ho-|* * * mi-|ne.|
 z2 d2 c3 B | A2 B2 c2 A2- | A2 c2 c2 B2 | A3 G EF G2 | C2 G4 A2 | c2 B3 A A2- | A2 G2 F4 | E8 | %107
w: Non mo- *|* ri- ar, sed|_ vi- vam et|ma- ra- * * *|bo o- pe-|ra Do- * *|* * mi-|ni.|
 z8 | z8 | z8 | z8 | z8 | d3 c BA B2- | Bc d2 G2 B2 | A3 G FE F2- | FG A2 D3 E | FG A2 F2 c2- | %117
w: |||||Ca- sti- * * gans|_ _ _ ca- sti-|ga- * * * vit|_ _ _ me _|_ _ _ Do- *|
 cB A4 ^G2 | A4 z4 | A3 G F2 E2 | A4 G4 | G4 G2 G2 | c6 BA | G3 A BG A2- | A2 GF E4 | %125
w: * * * mi-|nus,|ca- sti- * gans|ca- sti-|ga- vit me|Do- * *||* mi- * nus,|
 z2 G2 A2 B2- | Bc d3 c A2- | AB c3 BAG | A2 B3 A G2- | G2 ^F2 G4- | G4 z2 G2 | A2 B3 c d2- | %132
w: et mor- ti|_ _ non _ tra-||* * * di-|* dit me|_ et|mor- ti _ non|
 dc A3 B c2- | cBAG A2 B2- | BA G4 ^F2 | G8 |] %136
w: _ _ tra- * *||* * di- dit|me.|
V:2
 z8 | z8 | z8 | z8 | z2 E2 F2 E2 | F4 E4- | E4 z4 | z4 C3 C | C2 D2 E3 F | G4 z2 E2 | F2 G2 E2 D2 | %11
w: ||||quo- ni- am|bo- nus,|_|quo- ni-|am in sae- cu-|lum mi-|se- ri- cor- di-|
 G3 F E2 DC | DE F3 E C2- | CD E4 DC | B,2 C4 B,2 | E4 D4 | z8 | z8 | z8 | z2 A,2 B,2 C2 | %20
w: a _ _ _ _|_ _ _ _ _|||e- jus.||||mi- se- ri-|
 A,2 G,2 C4 | z2 C2 C2 C2 | E4 D4 | B,2 C2 D4- | D2 CB, E2 D2- | DCB,A, B,4 | z2 A,2 C3 D | %27
w: cor- di- a,|mi- se- ri-|cor- di-|a _ _|_ _ _ _ e-|* * * * jus.|De tri- bu-|
 E2 F2 D2 C2- | C2 D2 E2 F2 | D3 C CB, E2- | ED D4 ^C2 | D4 z4 | z8 | z8 | z8 | z8 | z2 D2 E2 G2- | %37
w: la- ti- o- ne|_ in- vo- *|ca- * * * *|* vi Do- mi-|num,|||||in- vo- ca-|
 G2 F2 D3 E | F2 E2 D4 | z2 G,2 A,2 C2- | C2 B,2 G,2 B,2 | A,4 G,4- | G,8- | G,4 z4 | z4 D4 | %45
w: * vi Do- *|* mi- num,|in- vo- ca-|* vi Do- *|mi- num,|_||et|
 C2 E2 _B,2 A,2- | A,2 G,4 ^F,2 | G,4 D4- | D2 B,2 B,4 | z8 | z8 | z4 z2 G2- | GF E2 D2 C2- | %53
w: ex- au- di- *|* * vit|me. Do-|* mi- nus|||Do-|* mi- nus mi- hi|
 C2 B,2 A,4 | G,4 z4 | z4 z2 C2 | D2 D2 E4 | C2 D2 B,2 A,2- | A,2 D3 CB,A, | B,4 C4 | z8 | %61
w: _ ad- ju-|tor,|non|ti- me- bo|quid fa- ci- at|_ mi- hi _ _|ho- mo,||
 z2 C2 D2 B,2 | A,4 z4 | z8 | z8 | z2 D2 D2 D2 | E4 C2 E2 | D2 B,3 G, B,2 | A,4 z4 | z4 z2 D2 | %70
w: mi- hi ho-|mo,|||non ti- me-|bo quid fa-|* * * ci-|at|non|
 D2 D2 E4 | C2 D2 B,2 A,2 | z2 E4 F2- | FE C2 D4 | D8 || D6 D2 | D3 C B,2 A,2 | G,4 z4 | %78
w: ti- me- bo|quid fa- ci- at|mi- hi|_ _ _ ho-|mo.|Bo- num|est con- fi- de-|re,|
 z4 z2 A,2- | A,B, C2 D2 B,2 | A,2 E4 F2- | FE D3 CB,A, | B,2 D2 C3 B, | A,4 z4 | A,3 B, C2 D2 | %85
w: bo-|* num est con- fi-|de- re in|_ _ Do- * * *|* * * mi-|no,|bo- num est con-|
 B,2 A,2 D4 | z2 D2 E2 F2 | G4 z2 D2 | E2 F2 G4 | z8 | z4 z2 D2 | F2 F2 E3 D | B,C D3 C A,2- | %93
w: fi- de- re|in Do- mi-|no, in|Do- mi- no,||quam|con- fi- de- *|* * re _ _|
 A,2 C3 D E2- | ED D3 CA,B, | CD E4 D2 | F2 G2 D4 | E4 D3 C | B,8 | z8 | z2 G2 F3 E | %101
w: _ in _ ho-||||* * mi-|ne.||Non mo- ri-|
 D2 E2 F2 D2- | D2 C2 C2 B,2 | A,B,CD EC F2 | E2 D3 C A,2 | B,3 B, A,4- | A,4 z4 | z8 | z8 | z8 | %110
w: ar, sed vi- vam|_ et ma- ra-|bo _ _ _ _ _ o-|pe- ra _ _|Do- mi- ni.|_||||
 z8 | z8 | z4 D3 D | D2 D2 E2 E2 | F4 D4 | z2 D3 C B,2 | A,3 B, CD E2- | EDDC E4- | E4 z2 C2- | %119
w: ||Ca- sti-|gans ca- sti- ga-|vit me|Do- * *||* * mi- * nus,|_ ca-|
 CC C2 C2 C2 | D2 D2 E4- | E4 z4 | E4 E2 E2 | E3 D/C/ B,2 C2- | C2 B,2 C4 | z2 C4 B,2 | %126
w: * sti- gans ca- sti-|ga- vit me|_|ca- sti- ga-|vit _ _ me Do-|* mi- nus,|et mor-|
 G,2 B,2 A,2 F,2- | F,2 F2 E2 F2- | FE D3 CCB, | D4 B,4- | B,4 z2 C2- | C2 B,2 G,2 B,2 | %132
w: ti non tra- di-|||dit me|_ et|_ mor- ti non|
 A,2 F,4 F2 | E2 F3 E D2- | DCCB, D4 | D8 |] %136
w: tra- di- *||* * * * dit|me.|
V:3
 G8 | G4 c4- | c2 c2 c4 | c6 B2 | A8 | z4 z2 A2 | A2 G2 FGAB | c4 z4 | z8 | z8 | z8 | z8 | z8 | %13
w: Con-|fi- te-|* mi- ni|Do- mi-|no|quo-|ni- am bo- * * *|nus,||||||
 z8 | z4 z2 G2- | GG G2 A2 B2- | Bc d4 B2 | c2 d2 B2 A2 | c3 B A2 G2- | G2 F2 E4 | z2 D2 E2 F2 | %21
w: |quo-|* ni- am in sae-|* cu- lum mi-|se- ri- cor- di-|a _ _ e-|* * jus,|mi- se- ri-|
 D2 C2 F2 ED | EF G4 F2 | G4 A4 | G8- | G8 | z8 | z8 | z8 | z8 | z8 | z2 D2 G3 A | B2 c2 A2 G2- | %33
w: cor- di- a e- *|||jus.|_||||||De tri- bu-|la- ti- o- ne|
 G2 A2 B2 c2 | A4 z2 DE | FG A3 GGF | A2 F2 E4 | A4 G2 B2 | A4 z2 GA | Bc d4 c2 | d4 e2 d2- | %41
w: _ in- vo- ca-|vi Do- *||* mi- num,|in- vo- ca-|vi Do- *|* * * mi-|num, Do- *|
 dc c4 B2 | c4 z4 | c4 B2 A2 | c3 B AG F2- | F2 D2 G2 F2- | FE D4 C2 | D8 | z4 G3 G | A2 B2 c2 A2 | %50
w: * * * mi-|num,|et ex- au-|di- * * * *|* vit ex- *|* au- di- vit|me.|Do- mi-|nus mi- hi ad-|
 c4 B2 d2- | dcBA G4 | z8 | z8 | B3 c d2 e2- | edcB A4 | z8 | z8 | z4 z2 d2 | d2 d2 e4 | %60
w: ju- * *|* * * * tor,|||ad- * * ju-|* * * * tor,|||non|ti- me- bo|
 c2 d2 B2 A2 | z2 G2 G2 G2 | A4 F2 A2 | G2 E4 F2 | G2 A3 GFE | D4 z2 G2 | G2 G2 A4 | F2 G2 E2 D2- | %68
w: quid fa- ci- at|non ti- me-|bo quid fa-|ci- at mi-|hi ho- * * *|mo, non|ti- me- bo|quid fa- ci- at|
 D2 A2 _B2 G2- | GABc d4 | B2 A2 B4 | A4 d4 | c2 A2 B2 c2- | cB G2 A4 | G8 || z8 | z8 | d6 d2 | %78
w: _ mi- hi ho-|* * * * mo,|mi- hi ho-||mo, mi- hi ho-||mo.|||Bo- num|
 d4 z4 | z8 | z8 | D3 E F2 G2 | E2 D2 A4 | z2 A2 B2 c2 | d4 z4 | z4 z2 G2 | B4 c2 d2 | z8 | %88
w: est|||bo- num est con-|fi- de- re|in Do- mi-|no,|in|Do- mi- no,||
 c4 c2 B2 | d4 A4 | c4 B2 B2 | A4 z4 | z8 | F4 F2 E2 | G4 DEFG | AB c2 BABc | d3 c B2 A2 | %97
w: quam con- fi-|de- re|in ho- mi-|ne.||quam con- fi-|de- * * * *||* * * re|
 B2 c2 A4 | G4 z2 d2 | c2 B2 A4 | z8 | z8 | z8 | z8 | z8 | z4 z2 d2 | c3 B A2 B2 | c2 A4 c2 | %108
w: in ho- mi-|ne. Non|mo- ri- ar,||||||Non|mo- * * ri-|ar, sed vi-|
 c2 B2 A3 G | EF G2 C2 G2- | G2 A2 c2 B2- | BA d4 c2 | B3 A G4- | G4 z4 | z4 A3 A | A2 A2 B2 B2 | %116
w: vam et ma- ra-|* * * bo o-|* pe- ra Do-|* * * mi-|ni. _ _|_|Ca- sti-|gans ca- sti- ga-|
 c4 A2 G2 | A4 B4 | A8 | z2 A4 A2 | A2 A2 B2 B2 | c6 B2 | A2 A2 G4 | z8 | z4 z2 G2- | G2 E2 F2 G2 | %126
w: vit me _|Do- mi-|nus,|ca- sti-|gans ca- sti- ga-|vit me|Do- mi- nus,||et|_ mor- ti non|
 E2 DE FG A2 | D2 A3 GAB | c2 B2 G4 | A4 G4 | z2 G4 E2 | F2 G2 E2 DE | FG A2 D2 A2- | AGAB c2 B2 | %134
w: tra- di- * * * dit|non tra- * * *|* di- dit|_ me|et mor-|ti non tra- di- *|* * dit non tra-|* * * * * di-|
 G4 A4 | G8 |] %136
w: dit _|me.|
V:4
 z8 | z8 | z8 | z8 | z8 | z8 | z8 | z2 E,2 F,2 E,2 | F,4 E,4- | E,4 z4 | z8 | z8 | z8 | %13
w: |||||||quo- ni- am|bo- nus,|_||||
 C,3 C, C,2 D,2 | E,3 F, G,4 | z2 E,2 F,2 G,2 | E,2 D,2 G,3 F, | E,2 D,C, D,E, F,2- | %18
w: quo- ni- am in|sae- cu- lum|mi- se- ri-|cor- di- a _|_ e- * * * *|
 F,E, C,2 D,2 E,2 | C,2 D,4 C,2 | D,2 B,,2 A,,4 | G,,2 A,,2 F,,2 C,2- | C,D,E,F, G,2 D,2 | %23
w: |||||
 E,4 D,4 | G,,8- | G,,8 | z8 | z8 | z8 | z8 | z8 | z8 | z2 A,,2 C,3 D, | E,2 F,2 D,2 C,2- | %34
w: |jus.|_|||||||De tri- bu-|la- ti- o- ne|
 C,2 D,2 E,2 F,2 | D,3 C, C,B,, E,2- | E,D, D,4 ^C,2 | D,4 z2 G,2 | A,2 C4 B,2 | G,2 B,2 A,4 | %40
w: _ in- vo- *|ca- * * * *|* vi Do- mi-|num, in-|vo- ca- vi|Do- * mi-|
 G,4 z4 | z8 | C,4 C,2 C,2- | C,D,E,F, G,E, F,2- | F,E, C,2 D,3 C, | A,,2 _B,,3 C, D,2- | %46
w: num,||et ex- au-|||* di- * *|
 D,2 G,,2 A,,4 | G,,8- | G,,8 | z8 | z8 | z8 | C,3 C, D,2 E,2 | F,2 D,2 F,4 | E,2 G,3 F,E,D, | %55
w: * * vit|me.|_||||Do- mi- nus mi-|hi ad- ju-||
 C,4 z4 | z8 | z8 | z8 | z8 | z2 D,2 D,2 D,2 | E,4 z4 | z2 D,2 D,2 D,2 | E,4 C,2 D,2 | %64
w: tor,|||||non ti- me-|bo|non ti- me-|bo quid fa-|
 B,,2 A,,4 D,2- | D,C,B,,A,, B,,4 | C,4 z4 | z2 G,,2 G,,2 G,,2 | D,4 D,2 E,D, | E,F, G,3 F, D,2 | %70
w: ci- at mi-|* hi _ _ ho-|mo,|non ti- me-|bo quid fa- *||
 G,2 F,2 E,4 | A,,2 D,3 E,F,G, | A,4 G,2 F,2- | F,G, E,2 D,4 | G,,8 || z4 D,4- | D,2 D,2 D,4 | %77
w: * * ci-|at mi- * * *|* hi ho-||mo.|Bo-|* num est|
 z4 D,3 E, | F,2 G,2 E,2 D,2 | A,4 z4 | z8 | z8 | z4 A,,3 B,, | C,2 D,2 B,,2 A,,2 | D,4 z2 D,2 | %85
w: bo- num|est con- fi- de-|re|||bo- num|est con- fi- de-|re in|
 E,2 F,2 G,4- | G,4 z4 | z2 G,2 _B,2 B,2 | A,3 G, E,F, G,2- | G,F, D,4 F,2- | F,G, A,4 G,2 | %91
w: Do- mi- no,|_|quam con- fi-|de- * * * *||* * re in|
 F,3 E, C,2 G,2- | G,F,D,E, F,4 | z8 | z4 F,4 | F,2 E,2 G,4 | D,2 G,4 F,2 | E,2 C,2 D,4 | G,,8 | %99
w: ho- * * mi-|* * * * ne.||quam|con- fi- de-|re in ho-|* * mi-|ne.|
 z8 | z8 | z8 | z8 | z8 | z2 G,2 F,3 E, | D,2 E,2 F,2 D,2 | z4 z2 G,2 | F,3 E, D,2 E,2 | %108
w: |||||Non mo- ri-|ar, sed vi- vam|non|mo- ri- ar, sed|
 F,2 D,4 C,2 | C,2 B,,2 A,,B,,C,D, | E,C, F,4 G,2 | A,2 F,2 E,4 | D,4 z4 | z8 | D,3 D, D,2 D,2 | %115
w: vi- vam et|ma- ra- bo _ _ _|_ _ o- pe-|ra Do- mi-|ni.||Ca- sti- gans ca-|
 D,2 D,2 G,4 | F,2 F,3 E, C,2 | F,4 E,4 | A,,4 A,3 G, | F,E, F,3 G, A,2 | D,2 F,2 E,3 D, | %121
w: sti- ga- vit|me Do- * *|mi- *|nus, ca- sti-|* * gans _ _|ca- sti- ga- *|
 C,B,, C,3 D, E,2 | A,,3 B,, C,D, E,2- | E,F, G,4 F,E, | D,4 C,4- | C,4 z2 G,,2 | G,,2 G,,2 D,4 | %127
w: * * vit _ me|Do- * * * *||mi- nus,|_ et|mor- ti non|
 F,3 E, C,2 F,2- | F,2 G,2 E,4 | D,4 G,,4- | G,,4 z4 | z2 G,,2 G,,2 G,,2 | D,4 F,3 E, | %133
w: tra- * * di-|* * dit|_ me|_|et mor- ti|non tra- *|
 C,2 F,4 G,2 | E,4 D,4 | G,,8 |] %136
w: * di- *|dit _|me.|

